www/assets/icons/pan_tool_alt.svg

<svg width="24" height="24" viewBox="0 0 24 24" xmlns="http://www.w3.org/2000/svg" fill='currentColor'><path d="M19.4802 14.82L18.8502 19.28C18.7102 20.27 17.8602 21 16.8702 21H10.7102C10.1802 21 9.42024 20.79 9.05024 20.41L4.50024 15.62L5.33024 14.78C5.57024 14.54 5.91024 14.43 6.25024 14.5L9.50024 15.24V4.5C9.50024 3.67 10.1702 3 11.0002 3C11.8302 3 12.5002 3.67 12.5002 4.5V10.5H13.4102C13.7202 10.5 14.0302 10.57 14.3002 10.71L18.3902 12.75C19.1602 13.14 19.6002 13.97 19.4802 14.82Z"/></svg>

<svg xmlns="http://www.w3.org/2000/svg" width="24" height="24" viewBox="0 0 24 24" fill='currentColor'><path d="m19.48 14.82-.63 4.46c-.14.99-.99 1.72-1.98 1.72h-6.16c-.53 0-1.29-.21-1.66-.59L4.5 15.62l.83-.84c.24-.24.58-.35.92-.28l3.25.74V4.5c0-.83.67-1.5 1.5-1.5s1.5.67 1.5 1.5v6h.91c.31 0 .62.07.89.21l4.09 2.04c.77.39 1.21 1.22 1.09 2.07"/></svg>
